packages/foundations/assets/icons/functional/images/transportation/electric_scooter_20.svg

<svg width="20" height="20" viewBox="0 0 20 20" fill="none" xmlns="http://www.w3.org/2000/svg">
<g clip-path="url(#clip0_187_975)">
<path fill-rule="evenodd" clip-rule="evenodd" d="M15.2108 2.16793L13.1456 2.79178C12.4521 3.00129 12.0142 3.67263 12.0871 4.38011L13.247 10.2089C12.2903 10.8262 11.4704 11.5807 10.9496 12.2752C10.4961 12.8799 10.2067 13.5836 10.0777 14.3745L6.79183 14.3747C6.40601 13.492 5.52514 12.8752 4.5 12.8752C3.11957 12.8752 2 13.9945 2 15.3752C2 16.7559 3.11957 17.8752 4.5 17.8752C5.52497 17.8752 6.40571 17.2586 6.79164 16.3761L10.9996 16.3752C11.5519 16.3752 11.9996 15.9275 11.9996 15.3752C11.9996 14.582 12.1863 13.9596 12.5496 13.4752C12.823 13.1106 13.1982 12.7389 13.676 12.3633L13.8963 13.4573C13.3485 13.9159 13 14.6049 13 15.3752C13 16.7559 14.1196 17.8752 15.5 17.8752C16.8809 17.8752 18 16.7561 18 15.3752C18 14.1041 17.0518 13.0548 15.824 12.896L14.159 4.5752L15.7892 4.08248C16.2801 3.93418 16.6345 3.34825 16.4573 2.83603C16.2801 2.32381 15.7606 2.00408 15.2108 2.16793ZM15.5 14.8752C15.7763 14.8752 16 15.0989 16 15.3752C16 15.6515 15.7763 15.8752 15.5 15.8752C15.224 15.8752 15 15.6513 15 15.3752C15 15.0992 15.224 14.8752 15.5 14.8752ZM4.5 14.8752C4.77632 14.8752 5 15.0989 5 15.3752C5 15.6515 4.77632 15.8752 4.5 15.8752C4.22402 15.8752 4 15.6513 4 15.3752C4 15.0992 4.22402 14.8752 4.5 14.8752ZM7.69413 11.1557C6.54389 10.0452 5.24739 9.65927 3.83916 9.8881C3.29403 9.97668 2.92392 10.4904 3.0125 11.0355C3.10108 11.5807 3.61481 11.9508 4.15995 11.8622C4.95566 11.7329 5.61614 11.9295 6.30498 12.5946C6.70231 12.9782 7.33537 12.9671 7.71898 12.5697C8.10258 12.1724 8.09145 11.5393 7.69413 11.1557Z" fill="#1A1C1F"/>
</g>
<defs>
<clipPath id="clip0_187_975">
<rect width="20" height="20" fill="white"/>
</clipPath>
</defs>
</svg>

<svg xmlns="http://www.w3.org/2000/svg" width="20" height="20" fill="none"><g clip-path="url(#a)"><path fill="#1A1C1F" fill-rule="evenodd" d="m15.21 2.168-2.064.624a1.5 1.5 0 0 0-1.059 1.588l1.16 5.829c-.957.617-1.777 1.372-2.297 2.066a4.7 4.7 0 0 0-.872 2.1H6.792a2.5 2.5 0 1 0 0 2.001H11a1 1 0 0 0 1-1c0-.794.186-1.416.55-1.9q.41-.548 1.126-1.113l.22 1.094a2.5 2.5 0 1 0 1.928-.561l-1.665-8.32 1.63-.494c.491-.148.845-.734.668-1.246s-.696-.832-1.246-.668m.29 12.707a.5.5 0 1 1 0 1 .5.5 0 0 1 0-1m-11 0a.5.5 0 1 1 0 1 .5.5 0 0 1 0-1m3.194-3.72c-1.15-1.11-2.447-1.496-3.855-1.267a1 1 0 1 0 .321 1.974c.796-.13 1.456.068 2.145.733a1 1 0 1 0 1.39-1.44" clip-rule="evenodd"/></g><defs><clipPath id="a"><path fill="#fff" d="M0 0h20v20H0z"/></clipPath></defs></svg>
